X:1
T: The Highland President
C:George Jenkins
R:Strathspey
Q: 128
K:Gm
M:4/4
L:1/16
|:F2|D2G2 G3^F G3A B2cB|A2F2 c2F2 d2F2 dcBA|G2D2 D3C B,3A, G,2dc|cBAG BAG^F G4 G,3=F|
D2G2 G3^F G3A B2cB|AFF2 cFF2 dFF2 dcBA|GABG ABcA BcdB cdfg|fdcd BcAB G4 G,2B2|
G2g2 g3d B2d2 G2ga|bgdg BdGB DGB,D G,B,DG|F2f2 f3c A2c2 F2fg|afcf AcFA CFA,C FAcf|
G2g2 g2dc B2d2 G2AG|F2f2 f2cB A2c2 F2BA|GABG ABcA BcdB cdfg|fdcd BcAB G4G,2:|
